X: 1
T: Elmer Briand
C: Hughie Briand
R: jig
S: Fiddle Hell Online 2020-11-05 Andrea Beaton workshop
Z: 2021 John Chambers <jc:trillian.mit.edu>
M: 6/8
L: 1/8
K: D
|:\
AAA fed | AAA fed | GGG gfg | B3 e2d |\
cBA gfe | ABA c2B | Ace gfe |1 f3 f3 :|2 d3 d2B |
|:\
Adf afd | Adf afd | GGG gfg | B3 e2d |\
cBA gfe | ABA c2B | Ace gfe |1 f3 f3 :|2 d3 dfg |
|:\
a3  afd | A3  f3  | a3  afg | B3 e2f |\
g3  gfe | ABA c2B | Ace gfe |1 f3 fg^g :|2 d3 d3 |]
